X: 147
T:Reel de Chateauguay
M:2/4
L:1/8
C:Trad.
S:Yvon Cuillerier
R:Reel
K:G
dg|:'b2bg a2af|ggbg d2dg|fdAB cBce|dBGA B2dg|!
b2bg a2af|ggbg d2dg|fdAB cdef|1g2b2 g2dg:|2g2b2 g2BA|!
|:G2GB d2g2|efge d2dg|fdAB cBce|dBGA B2BA|!
G2GB d2g2|efge d2dg|fdAB cdef|1g2b2 g2BA|2g2b2 g2z2:||
